/* XPM */
static char *result[] = {
/* columns rows colors chars-per-pixel */
"16 16 12 1 ",
"  c gray10",
". c #452E25",
"X c #58362A",
"o c #6E492F",
"O c #767676",
"+ c #B38047",
"@ c #D09F69",
"# c #9E9E96",
"$ c #C1C1C1",
"% c #D7D7D7",
"& c gray94",
"* c #B1D354",
/* pixels */
"****************",
"****************",
"****************",
"****************",
"***          ***",
"** %%++++++%% **",
"* #&&@@@@@@&&# *",
"* #%%++++++%%# *",
"* %$$@@@@@@$$% *",
"* %##+&&&&+##% *",
"* &&&&$$$$&&&& *",
"* ####$..$#### *",
"** OOX####XOO **",
"** ##oooooo## **",
"**            **",
"****************"
};
