/* XPM */
static char *result[] = {
/* columns rows colors chars-per-pixel */
"16 16 13 1 ",
"  c gray9",
". c #373737",
"X c #7F7035",
"o c #7E7E7E",
"O c #93674D",
"+ c #BC8B4D",
"@ c #D3A061",
"# c #E2AD6E",
"$ c #EACE60",
"% c #AEB1B4",
"& c #BBBEC2",
"* c #CED1D5",
"= c #B1D354",
/* pixels */
"=====      =====",
"===  ######  ===",
"=  @@@++++@@@  =",
" @@++######++@@ ",
" ++@@&&&&&&@@++ ",
" @@++&.XX.&++@@ ",
" ++@@&.$$.&@@++ ",
" @@+++@@@@+++@@ ",
" ++@@@####@@@++ ",
" @@###++++###@@ ",
" ##+++oooo+++## ",
" ++ooo%&&%ooo++ ",
"= o.&&OOOO&&.o =",
"= *.*O@@+@O*.* =",
"= &o&O@@+@O&o& =",
"= **&O@@+@O&** ="
};
