/* XPM */
static char *result[] = {
/* columns rows colors chars-per-pixel */
"16 16 8 1 ",
"  c gray9",
". c #515151",
"X c #99703B",
"o c #D3A061",
"O c #818181",
"+ c #B1B1B1",
"@ c #F4F4F4",
"# c #B1D354",
/* pixels */
"################",
"################",
"######    ######",
"##### ++++ #####",
"#### O++++O ####",
"#### OOOOOO ####",
"###  O++++O ####",
"## @ +    + ####",
"## @ O+  +O   ##",
"## @ .+  +.XoX #",
"## @O+OOOO+ooo #",
"# XoXO++++Oooo #",
"## + +O  O+XoX #",
"###    ##     ##",
"################",
"################"
};
