/* XPM */
static char *result[] = {
/* columns rows colors chars-per-pixel */
"16 16 7 1 ",
"  c gray9",
". c #76CA6D",
"X c #BC8B4D",
"o c #D3A061",
"O c #96E06D",
"+ c #CBE36F",
"@ c #B1D354",
/* pixels */
"@@@@@@@@@@@@@@@@",
"@@@@@@    @@@@@@",
"@@@@@ ++++ @@@@@",
"@@@@ ++++++ @@@@",
"@@@@ ++++++ @@@@",
"@@@ O++++++O @@@",
"@@@ OO++++OO @@@",
"@@ .OOOOOOOO. @@",
"@@ .OOOOOOOO. @@",
"@@ ..OOOOOO.. @@",
"@@ .......... @@",
"@@@ ........ @@@",
"@@@@  XXXX  @@@@",
"@@@@@ oooo @@@@@",
"@@@@@ oooo @@@@@",
"@@@@@@@@@@@@@@@@"
};
